X: 8214
T: Cooraclare
R: polka
M: 2/4
K: Gmajor
D|GA Bc|d>e dB|c>B cA|B>c BA|GA Bc|d>e dg|f/e/d cA|G2 G:|:B/d/||
g2 fe|d>e dB|c>B cA|B>c Bd|g2 fe|d>e dg|f/e/d cA|G2 G||

